src/images/global/icons/payment/card-paypal.svg

<?xml version="1.0" encoding="UTF-8"?>
<svg width="48px" height="48px" viewBox="0 0 48 48" version="1.1" xmlns="http://www.w3.org/2000/svg" xmlns:xlink="http://www.w3.org/1999/xlink">
    <!-- Generator: Sketch 46.2 (44496) - http://www.bohemiancoding.com/sketch -->
    <title>card/paypal</title>
    <desc>Created with Sketch.</desc>
    <defs>
        <linearGradient x1="0%" y1="0%" x2="50%" y2="100%" id="linearGradient-1">
            <stop stop-color="#FFFFFF" offset="0%"></stop>
            <stop stop-color="#F7F7F7" offset="22.3792251%"></stop>
            <stop stop-color="#F2F2F2" offset="100%"></stop>
        </linearGradient>
        <rect id="path-2" x="0" y="0" width="36" height="22" rx="2"></rect>
        <filter x="-9.7%" y="-11.4%" width="119.4%" height="131.8%" filterUnits="objectBoundingBox" id="filter-3">
            <feOffset dx="0" dy="1" in="SourceAlpha" result="shadowOffsetOuter1"></feOffset>
            <feGaussianBlur stdDeviation="1" in="shadowOffsetOuter1" result="shadowBlurOuter1"></feGaussianBlur>
            <feColorMatrix values="0 0 0 0 0.325490196   0 0 0 0 0.376470588   0 0 0 0 0.419607843  0 0 0 1 0" type="matrix" in="shadowBlurOuter1"></feColorMatrix>
        </filter>
    </defs>
    <g id="Symbols" stroke="none" stroke-width="1" fill="none" fill-rule="evenodd">
        <g id="card/paypal">
            <g id="Icon" transform="translate(6.000000, 13.000000)">
                <g id="Card">
                    <use fill="black" fill-opacity="1" filter="url(#filter-3)" xlink:href="#path-2"></use>
                    <use fill="url(#linearGradient-1)" fill-rule="evenodd" xlink:href="#path-2"></use>
                </g>
                <g id="PayPal_2014_logo" transform="translate(3.000000, 7.000000)" fill-rule="nonzero">
                    <g id="svg14712">
                        <path d="M5.4647648,0.592608696 C5.11406648,0.177826087 4.48012793,0 3.66916425,0 L1.31546313,0 C1.14954134,0 1.00854972,0.125217391 0.982572067,0.295 L0.00254413575,6.74478261 C-0.0169391045,6.87195652 0.0779631302,6.98717391 0.202194972,6.98717391 L1.6552676,6.98717391 L2.02021173,4.58521739 L2.00889888,4.66043478 C2.03487654,4.49065217 2.17482067,4.36543478 2.34053296,4.36543478 L3.03103575,4.36543478 C4.38753017,4.36543478 5.44968101,3.79369565 5.75994637,2.13978261 C5.76916425,2.09086957 5.77712514,2.04326087 5.78403855,1.99673913 C5.74486257,1.97521739 5.74486257,1.97521739 5.78403855,1.99673913 C5.87642682,1.38543478 5.78336816,0.969347826 5.4647648,0.592608696" id="path14499" fill="#003087"></path>
                        <path d="M20.4775022,3.64245739 L19.6954492,3.64245739 C19.6206587,3.64245739 19.5506866,3.68093565 19.5087872,3.74528348 L18.4298765,5.39397913 L17.9727536,3.8096313 C17.9440525,3.71050087 17.8560637,3.64245739 17.756343,3.64245739 L16.9876978,3.64245739 C16.8948905,3.64245739 16.8295274,3.73724 16.8594855,3.82832696 L17.720519,6.45137043 L16.9106028,7.63724 C16.8471251,7.73028348 16.9112732,7.85897913 17.0212173,7.85897913 L17.8024324,7.85897913 C17.8763849,7.85897913 17.9457285,7.82137043 17.9880469,7.75832696 L20.5887453,3.86310957 C20.6509659,3.7698487 20.5868514,3.64245739 20.4775022,3.64245739 M15.2491441,5.21395652 C15.1739346,5.67526087 14.8211413,5.98504348 14.3709318,5.98504348 C14.1453034,5.98504348 13.9645073,5.9096087 13.8484458,5.767 C13.7334318,5.62569565 13.6900659,5.42417391 13.7265184,5.20004348 C13.7964905,4.74265217 14.1551497,4.42308696 14.5984458,4.42308696 C14.8194654,4.42308696 14.998795,4.49917391 15.1171609,4.64308696 C15.2363648,4.78808696 15.2832922,4.99069565 15.2491441,5.21395652 M16.3335017,3.64243478 L15.5554291,3.64243478 C15.4888089,3.64243478 15.4320352,3.69265217 15.4215603,3.76113043 L15.3874123,3.98678261 L15.3331525,3.90504348 C15.1645073,3.65134783 14.7888788,3.56634783 14.4138788,3.56634783 C13.5543117,3.56634783 12.820024,4.24243478 12.6771469,5.19047826 C12.6027754,5.66352174 12.708362,6.11547826 12.9668816,6.43091304 C13.2042419,6.72069565 13.5429989,6.84134783 13.9467,6.84134783 C14.6397168,6.84134783 15.0239346,6.3796087 15.0239346,6.3796087 L14.9891581,6.60395652 C14.9761693,6.68917391 15.0396469,6.76634783 15.1230268,6.76634783 L15.8235855,6.76634783 C15.9348285,6.76634783 16.0293117,6.68265217 16.0467,6.56873913 L16.4673704,3.80482609 C16.4803592,3.7196087 16.4166721,3.64243478 16.3335017,3.64243478 M11.6643737,3.66182609 C11.5755469,4.26704348 11.1301559,4.26704348 10.6992201,4.26704348 L10.4541084,4.26704348 L10.6261056,3.13704348 C10.6363626,3.06878261 10.6931447,3.01856522 10.7597648,3.01856522 L10.8722648,3.01856522 C11.1655609,3.01856522 11.4425162,3.01856522 11.5853933,3.19182609 C11.6708682,3.29552174 11.6966363,3.44943478 11.6643737,3.66182609 M11.4768737,2.08269565 L9.85201341,2.08269565 C9.74077039,2.08269565 9.64628715,2.1666087 9.62889888,2.28052174 L8.97191564,6.604 C8.95892682,6.68921739 9.02240447,6.7663913 9.10557486,6.7663913 L9.88155251,6.7663913 C9.99258603,6.7663913 10.0870693,6.68247826 10.1044575,6.56878261 L10.2819017,5.40226087 C10.2990804,5.28834783 10.3937732,5.20443478 10.5048067,5.20443478 L11.0189128,5.20443478 C12.0892341,5.20443478 12.7070413,4.66704348 12.8683542,3.6016087 C12.9410497,3.13595652 12.8712872,2.76986957 12.6611615,2.51356522 C12.430086,2.23182609 12.020519,2.08269565 11.4768737,2.08269565" id="path14519" fill="#002F86"></path>
                        <path d="M28.8398983,2.20150087 L28.1730687,6.60410957 C28.1600799,6.68932696 28.2235575,6.76650087 28.3067279,6.76650087 L28.977538,6.76650087 C29.0885715,6.76650087 29.1832642,6.68258783 29.200443,6.56867478 L29.8580547,2.24519652 C29.8710436,2.15997913 29.8075659,2.08280522 29.724186,2.08280522 L28.973767,2.08280522 C28.9069374,2.08280522 28.8501637,2.13302261 28.8398983,2.20150087 M26.8384877,5.21395652 C26.7632782,5.67526087 26.4104849,5.98504348 25.9602754,5.98504348 C25.7346469,5.98504348 25.5538508,5.9096087 25.4377894,5.767 C25.3225659,5.62569565 25.2794095,5.42417391 25.315862,5.20004348 C25.3858341,4.74265217 25.7444933,4.42308696 26.1877894,4.42308696 C26.4088089,4.42308696 26.5881385,4.49917391 26.7065045,4.64308696 C26.8257084,4.78808696 26.8726358,4.99069565 26.8384877,5.21395652 M27.9228453,3.64243478 L27.1447726,3.64243478 C27.0781525,3.64243478 27.0213788,3.69265217 27.0109039,3.76113043 L26.9767559,3.98678261 L26.9222866,3.90504348 C26.7538508,3.65134783 26.3782223,3.56634783 26.0032223,3.56634783 C25.1436553,3.56634783 24.4093676,4.24243478 24.2664905,5.19047826 C24.192119,5.66352174 24.2977056,6.11547826 24.5562251,6.43091304 C24.7935855,6.72069565 25.1323425,6.84134783 25.5360436,6.84134783 C26.2290603,6.84134783 26.6132782,6.3796087 26.6132782,6.3796087 L26.5785017,6.60395652 C26.5655128,6.68917391 26.6289905,6.76634783 26.7123704,6.76634783 L27.4129291,6.76634783 C27.5241721,6.76634783 27.6186553,6.68265217 27.6360436,6.56873913 L28.056714,3.80482609 C28.0697028,3.7196087 28.0060156,3.64243478 27.9228453,3.64243478 M23.2536972,3.66182609 C23.1648704,4.26704348 22.7194793,4.26704348 22.2885436,4.26704348 L22.0434318,4.26704348 L22.2154291,3.13704348 C22.2257028,3.06878261 22.2824682,3.01856522 22.3490883,3.01856522 L22.4615883,3.01856522 C22.7548844,3.01856522 23.0318397,3.01856522 23.1747168,3.19182609 C23.2601916,3.29552174 23.2859598,3.44943478 23.2536972,3.66182609 M23.0661972,2.08269565 L21.4413369,2.08269565 C21.3300939,2.08269565 21.2356106,2.1666087 21.2182223,2.28052174 L20.5612391,6.604 C20.5482503,6.68921739 20.6119374,6.7663913 20.6948983,6.7663913 L21.5286972,6.7663913 C21.6064207,6.7663913 21.6726218,6.70769565 21.6847726,6.62813043 L21.8712251,5.40226087 C21.8884039,5.28834783 21.9830966,5.20443478 22.0941302,5.20443478 L22.6082363,5.20443478 C23.6785575,5.20443478 24.2963648,4.66704348 24.4576777,3.6016087 C24.5303732,3.13595652 24.4606106,2.76986957 24.2504849,2.51356522 C24.0194095,2.23182609 23.6098425,2.08269565 23.0661972,2.08269565" id="path14523" fill="#009CDE"></path>
                        <path d="M5.4647648,0.592608696 C5.11406648,0.177826087 4.48012793,0 3.66916425,0 L1.31546313,0 C1.14954134,0 1.00854972,0.125217391 0.982572067,0.295 L0.00254413575,6.74478261 C-0.0169391045,6.87195652 0.0779631302,6.98717391 0.202194972,6.98717391 L1.6552676,6.98717391 L2.02021173,4.58521739 L2.00889888,4.66043478 C2.03487654,4.49065217 2.17482067,4.36543478 2.34053296,4.36543478 L3.03103575,4.36543478 C4.38753017,4.36543478 5.44968101,3.79369565 5.75994637,2.13978261 C5.76916425,2.09086957 5.77712514,2.04326087 5.78403855,1.99673913 C5.74486257,1.97521739 5.74486257,1.97521739 5.78403855,1.99673913 C5.87642682,1.38543478 5.78336816,0.969347826 5.4647648,0.592608696" id="path14527" fill="#003087"></path>
                        <path d="M2.4124324,2.0048487 C2.4279352,1.90267478 2.49120335,1.81897913 2.57625922,1.77658783 C2.6150162,1.75745739 2.65817263,1.74680522 2.70342402,1.74680522 L4.54867542,1.74680522 C4.76718101,1.74680522 4.97102179,1.76158783 5.1572648,1.79267478 C5.21068659,1.80157913 5.2624324,1.81180522 5.31271173,1.82354435 C5.36299106,1.83505739 5.41180391,1.84810957 5.45915028,1.86245739 C5.48282346,1.86962261 5.50607765,1.8770313 5.52891285,1.8848487 C5.62046313,1.91658783 5.70572849,1.95354435 5.78408045,1.99680522 C5.87646872,1.38528348 5.78341006,0.969413913 5.4648067,0.592674783 C5.11389888,0.177892174 4.48016983,6.60869565e-05 3.66920615,6.60869565e-05 L1.31529553,6.60869565e-05 C1.14958324,6.60869565e-05 1.00859162,0.125283478 0.982613966,0.295066087 L0.00258603519,6.7446313 C-0.016897205,6.87202261 0.0780050296,6.98702261 0.202027374,6.98702261 L1.6553095,6.98702261 L2.02025363,4.58506609 L2.4124324,2.0048487 L2.4124324,2.0048487 Z" id="path14531" fill="#002F86"></path>
                        <path d="M5.78408045,1.99673913 L5.78408045,1.99673913 C5.77695754,2.04347826 5.76919777,2.09086957 5.75998827,2.13978261 C5.44972291,3.79347826 4.38757207,4.36543478 3.03107765,4.36543478 L2.34036536,4.36543478 C2.17465307,4.36543478 2.03470894,4.49065217 2.00894078,4.66043478 L1.6553095,6.98695652 L1.55496034,7.64695652 C1.53799106,7.75826087 1.62095196,7.85913043 1.72947151,7.85913043 L2.95440168,7.85913043 C3.09937374,7.85913043 3.2227676,7.74956522 3.2453933,7.60108696 L3.25734302,7.53630435 L3.48820894,6.01804348 L3.50309162,5.93413043 C3.52571732,5.78565217 3.64911117,5.67608696 3.79408324,5.67608696 L3.9773933,5.67608696 C5.16398547,5.67608696 6.09310559,5.17586957 6.36461397,3.72913043 C6.47795196,3.12456522 6.41929274,2.61978261 6.11950223,2.26521739 C6.02858045,2.15782609 5.91566145,2.06913043 5.78409721,1.99673913" id="path14535" fill="#009CDE"></path>
                        <path d="M5.45921397,1.86237043 C5.4118676,1.84802261 5.36305475,1.83497913 5.31277542,1.82345739 C5.26249609,1.81192696 5.21054078,1.80171826 5.15732849,1.79280522 C4.97087598,1.76150087 4.76724469,1.74671826 4.54852961,1.74671826 L2.70348771,1.74671826 C2.65802682,1.74671826 2.61487039,1.75737913 2.57632291,1.77671826 C2.49105754,1.81910957 2.42799888,1.90258783 2.41249609,2.00497913 L2.02031732,4.58519652 L2.00900447,4.66041391 C2.03477263,4.4906313 2.17471676,4.36541391 2.34042905,4.36541391 L3.03114134,4.36541391 C4.38763575,4.36541391 5.44978659,3.79367478 5.76005196,2.13976174 C5.76926983,2.0908487 5.77702123,2.04345739 5.78414413,1.99671826 C5.70558268,1.95367478 5.62052682,1.91650087 5.52897654,1.88497913 C5.50614134,1.87715304 5.48288715,1.86953565 5.45921397,1.86237043" id="path14539" fill="#012069"></path>
                    </g>
                </g>
            </g>
        </g>
    </g>
</svg>

<?xml version="1.0" encoding="utf-8"?>
<!-- Generator: Adobe Illustrator 21.0.2, SVG Export Plug-In . SVG Version: 6.00 Build 0)  -->
<svg version="1.1" id="payment-card-paypal-Layer_1" xmlns="http://www.w3.org/2000/svg" xmlns:xlink="http://www.w3.org/1999/xlink" x="0px" y="0px"
	 viewBox="0 0 48 48" style="enable-background:new 0 0 48 48;" xml:space="preserve">
<title>card/paypal</title>
<desc>Created with Sketch.</desc>
<g id="payment-card-paypal-Symbols">
	<g id="payment-card-paypal-card_x2F_paypal">
		<g id="payment-card-paypal-Icon" transform="translate(6.000000, 13.000000)">
			<g id="payment-card-paypal-Card">
				<g>
					<path id="payment-card-paypal-path-2_2_" d="M2,0h32c1.1,0,2,0.9,2,2v18c0,1.1-0.9,2-2,2H2c-1.1,0-2-0.9-2-2V2C0,0.9,0.9,0,2,0z"/>
				</g>
				<g>
					<path id="payment-card-paypal-path-2_1_" style="fill:none;" d="M2,0h32c1.1,0,2,0.9,2,2v18c0,1.1-0.9,2-2,2H2c-1.1,0-2-0.9-2-2V2C0,0.9,0.9,0,2,0z
						"/>
				</g>
			</g>
			<g id="payment-card-paypal-PayPal_2014_logo" transform="translate(3.000000, 7.000000)">
				<g id="payment-card-paypal-svg14712">
					<path id="payment-card-paypal-path14499" style="fill:#003087;" d="M5.5,0.6C5.1,0.2,4.5,0,3.7,0H1.3C1.1,0,1,0.1,1,0.3L0,6.7C0,6.9,0.1,7,0.2,7
						h1.5L2,4.6v0.1c0-0.2,0.2-0.3,0.3-0.3H3c1.4,0,2.4-0.6,2.7-2.2V2.1l0,0C5.9,1.4,5.8,1,5.5,0.6"/>
					<path id="payment-card-paypal-path14519" style="fill:#002F86;" d="M20.5,3.6h-0.8c-0.1,0-0.1,0-0.2,0.1l-1.1,1.6L18,3.8c0-0.1-0.1-0.2-0.2-0.2H17
						c-0.1,0-0.2,0.1-0.1,0.2l0.9,2.6L17,7.6c-0.1,0.1,0,0.2,0.1,0.2h0.8c0.1,0,0.1,0,0.2-0.1l2.6-3.9C20.7,3.8,20.6,3.6,20.5,3.6
						 M15.2,5.2c0,0.5-0.4,0.8-0.8,0.8c-0.2,0-0.4-0.1-0.5-0.2s-0.2-0.3-0.1-0.6c0.1-0.5,0.4-0.8,0.9-0.8c0.2,0,0.4,0.1,0.5,0.2
						C15.2,4.8,15.3,5,15.2,5.2 M16.3,3.6h-0.8c-0.1,0-0.1,0.1-0.1,0.1v0.2l-0.1-0.1c-0.2-0.3-0.5-0.3-0.9-0.3
						c-0.9,0-1.6,0.7-1.7,1.6c-0.1,0.5,0,0.9,0.3,1.2c0.2,0.3,0.6,0.4,1,0.4c0.7,0,1.1-0.5,1.1-0.5v0.2c0,0.1,0.1,0.2,0.1,0.2h0.7
						c0.1,0,0.2-0.1,0.2-0.2l0.4-2.8C16.5,3.7,16.4,3.6,16.3,3.6 M11.7,3.7c-0.1,0.6-0.5,0.6-1,0.6h-0.2l0.2-1.1
						c0-0.1,0.1-0.1,0.1-0.1h0.1c0.3,0,0.6,0,0.7,0.2C11.7,3.3,11.7,3.4,11.7,3.7 M11.5,2.1H9.9c-0.1,0-0.2,0.1-0.2,0.2L9,6.6
						c0,0.1,0,0.2,0.1,0.2h0.8c0.1,0,0.2-0.1,0.2-0.2l0.2-1.2c0-0.1,0.1-0.2,0.2-0.2H11c1.1,0,1.7-0.5,1.8-1.6
						c0.1-0.5,0-0.8-0.2-1.1C12.4,2.2,12,2.1,11.5,2.1"/>
					<path id="payment-card-paypal-path14523" style="fill:#009CDE;" d="M28.8,2.2l-0.7,4.4c0,0.1,0.1,0.2,0.1,0.2H29c0.1,0,0.2-0.1,0.2-0.2l0.7-4.3
						c0-0.1-0.1-0.2-0.1-0.2H29C28.9,2.1,28.9,2.1,28.8,2.2 M26.8,5.2C26.8,5.7,26.4,6,26,6c-0.2,0-0.4-0.1-0.5-0.2
						s-0.2-0.3-0.1-0.6c0.1-0.5,0.4-0.8,0.9-0.8c0.2,0,0.4,0.1,0.5,0.2C26.8,4.8,26.9,5,26.8,5.2 M27.9,3.6h-0.8
						C27,3.6,27,3.7,27,3.7V4l-0.1-0.1c-0.2-0.3-0.5-0.3-0.9-0.3c-0.9,0-1.6,0.7-1.7,1.6c-0.1,0.5,0,0.9,0.3,1.2
						c0.2,0.3,0.6,0.4,1,0.4c0.7,0,1.1-0.5,1.1-0.5v0.2c0,0.1,0.1,0.2,0.1,0.2h0.7c0.1,0,0.2-0.1,0.2-0.2l0.4-2.8
						C28.1,3.7,28,3.6,27.9,3.6 M23.3,3.7c-0.1,0.6-0.5,0.6-1,0.6H22l0.2-1.1c0-0.1,0.1-0.1,0.1-0.1h0.1c0.3,0,0.6,0,0.7,0.2
						C23.3,3.3,23.3,3.4,23.3,3.7 M23.1,2.1h-1.6c-0.1,0-0.2,0.1-0.2,0.2l-0.7,4.3c0,0.1,0.1,0.2,0.1,0.2h0.8c0.1,0,0.1-0.1,0.2-0.1
						l0.2-1.2c0-0.1,0.1-0.2,0.2-0.2h0.5c1.1,0,1.7-0.5,1.8-1.6c0.1-0.5,0-0.8-0.2-1.1C24,2.2,23.6,2.1,23.1,2.1"/>
					<path id="payment-card-paypal-path14527" style="fill:#003087;" d="M5.5,0.6C5.1,0.2,4.5,0,3.7,0H1.3C1.1,0,1,0.1,1,0.3L0,6.7C0,6.9,0.1,7,0.2,7
						h1.5L2,4.6v0.1c0-0.2,0.2-0.3,0.3-0.3H3c1.4,0,2.4-0.6,2.7-2.2V2.1l0,0C5.9,1.4,5.8,1,5.5,0.6"/>
					<path id="payment-card-paypal-path14531" style="fill:#002F86;" d="M2.4,2c0-0.1,0.1-0.2,0.2-0.2h0.1h1.8c0.2,0,0.4,0,0.6,0c0.1,0,0.1,0,0.2,0
						s0.1,0,0.1,0s0,0,0.1,0C5.6,1.9,5.7,2,5.8,2c0.1-0.6,0-1-0.3-1.4C5.1,0.2,4.5,0,3.7,0H1.3C1.1,0,1,0.1,1,0.3L0,6.7
						C0,6.9,0.1,7,0.2,7h1.5L2,4.6L2.4,2L2.4,2z"/>
					<path id="payment-card-paypal-path14535" style="fill:#009CDE;" d="M5.8,2L5.8,2L5.8,2C5.4,3.8,4.4,4.4,3,4.4H2.3C2.2,4.4,2,4.5,2,4.7L1.7,7
						L1.6,7.6c0,0.1,0.1,0.2,0.2,0.2H3c0.1,0,0.3-0.1,0.3-0.3V7.4L3.5,6V5.9c0-0.1,0.1-0.3,0.3-0.3H4c1.2,0,2.1-0.5,2.4-1.9
						c0.1-0.6,0.1-1.1-0.2-1.5C6,2.2,5.9,2.1,5.8,2"/>
					<path id="payment-card-paypal-path14539" style="fill:#012069;" d="M5.5,1.9L5.5,1.9c-0.2,0-0.2,0-0.3,0c-0.2,0-0.4,0-0.6,0H2.7H2.6
						C2.5,1.8,2.4,1.9,2.4,2L2,4.6v0.1c0-0.2,0.2-0.3,0.3-0.3H3c1.4,0,2.4-0.6,2.7-2.2V2.1C5.7,2,5.6,1.9,5.5,1.9L5.5,1.9"/>
				</g>
			</g>
		</g>
	</g>
</g>
</svg>
